X: 88
T:Missa Faisant regretz / Credo
N: Derived from Jos0801c-Missa_Faisant_regretz-Credo.krn
C: Josquin des Prez
%%abc-version 2.0
%%abcx-abcm2ps-target-version 5.9.1 (29 Sep 2008)
%%abc-creator hum2abc beta
%%abcx-conversion-date 2019/02/12 16:15:42
%%abc-edited-by Jesse Rodin
%%abc-edited-by Jesse Rodin; Victoria Chang 2011/09/06
%%abcx-initial-encoding-date 2011/09/06/
%%humdrum-veritas 2533605003
%%humdrum-veritas-data 1786139305
%%linebreak <none>
%%barnumbers 0
L: 1/4
M: 3/1
Q: 1/2=120
%%staves [1 2 3 4]
V: 1 clef=treble
V: 2 clef=treble-8
V: 3 clef=treble-8
V: 4 clef=bass
K: F
[V:1] z12 | 
[V:2] z12 | 
[V:3] z12 | 
[V:4] B,4G,4A,4 | 
[V:1] z12 | 
[V:2] z12 | 
[V:3] B4G4A4 | 
[V:4] G,2B,3A,G,2F,2D,2 | 
[V:1] z4z4A4 | 
[V:2] z12 | 
[V:3] G2B4G2A4 | 
[V:4] E,2D,2E,D,G,4^F,2 | 
[V:1] B4A2F2G3A | 
[V:2] d8_e4 | 
[V:3] G4z4z4 | 
[V:4] G,2G,,2D,4C,4 | 
[V:1] BAB3AG4^F2 | 
[V:2] d4B2c2d4 | 
[V:3] B4G4A4 | 
[V:4] z2B,,2_E,4D,4 | 
[V:1] G8E2F2 | 
[V:2] B2c2d4c4 | 
[V:3] G4B2G2A4 | 
[V:4] _E,2C,2G,4z4 | 
[V:1] G4G4F2G2 | 
[V:2] z2B4G2A2G2 | 
[V:3] G4z4z4 | 
[V:4] z2G,3F,_E,2D,2G,,2 | 
[V:1] F2G4^F2G4 | 
[V:2] B2G2A4G4 | 
[V:3] z4z4B4 | 
[V:4] D,2_E,2D,4z4 | 
[V:1] z4E2F2G2G2 | 
[V:2] z2B2c2c2d2e2 | 
[V:3] G4A4G2c2- | 
[V:4] z12 | 
[V:1] A4D4E4 | 
[V:2] A2f3ed4^c2 | 
[V:3] c2A2B4A4 | 
[V:4] z12 | 
[V:1] D4z4A4 | 
[V:2] d2f3ed2c2f2 | 
[V:3] z2d4B2c4 | 
[V:4] D,3E,F,2G,2A,2F,2 | 
[V:1] B3GB2A4F2 | 
[V:2] d2g4e2f3d | 
[V:3] B2_e4c2d4 | 
[V:4] G,2_E,2G,2A,2D,4 | 
[V:1] G2A3GG4^F2 | 
[V:2] _e2d3Bc2A4 | 
[V:3] c2f2d2e2d4 | 
[V:4] z2D,2G,2C,2D,4 | 
[V:1] G4z2E2F2G2- | 
[V:2] G4z4z4 | 
[V:3] z2B2G2A4G2 | 
[V:4] G,,4z4z4 | 
[V:1] G2A2G2A2G2A2 | 
[V:2] z12 | 
[V:3] c6A2B2A2 | 
[V:4] z12 | 
[V:1] G2A4G2A4 | 
[V:2] z4z4z2F2- | 
[V:3] c2A2B4A4 | 
[V:4] z12 | 
[V:1] A4B4B2B2 | 
[V:2] F2F2G3AB2G2 | 
[V:3] f4d2e4d2 | 
[V:4] z4z2G,4G,2 | 
[V:1] A2G3EFGA4 | 
[V:2] A2B2c2F3GAB | 
[V:3] f2d2e2d2f2d2 | 
[V:4] F,2G,2C,2D,3E,F,G, | 
[V:1] G2G4^F2G4 | 
[V:2] (3:2:5c2G2c2B2A4G4 | 
[V:3] e4d8 | 
[V:4] E,2C,2D,4G,,4 | 
[V:1] [M:2/1]E2F2G4 | 
[V:2] [M:2/1]A4B2c2- | 
[V:3] [M:2/1]z8 | 
[V:4] [M:2/1]z8 | 
[V:1] E2F2G4 | 
[V:2] c2A2B2c2- | 
[V:3] z8 | 
[V:4] z8 | 
[V:1] A4z2A2 | 
[V:2] cBc2d2F2 | 
[V:3] z4z2f2 | 
[V:4] z4D,4 | 
[V:1] B2G2B2A2- | 
[V:2] G2G2FDd2- | 
[V:3] d2e2d2f2 | 
[V:4] B,,2C,2D,4 | 
[V:1] AGG4^F2 | 
[V:2] d2cBA4 | 
[V:3] d2e2d4- | 
[V:4] B,,2C,2D,4 | 
[V:1] G4z2A2 | 
[V:2] G4d4- | 
[V:3] d4z2f2 | 
[V:4] G,,4z2D,2 | 
[V:1] B2G4^F2 | 
[V:2] d2c2B2A2 | 
[V:3] d2_e2d4 | 
[V:4] B,,2C,2D,4 | 
[V:1] G4z2B2 | 
[V:2] G2B2c2d2 | 
[V:3] B2G2A2G2 | 
[V:4] G,,4z2G,2 | 
[V:1] G2B2AFG2 | 
[V:2] B4c4 | 
[V:3] B2G2A2G2 | 
[V:4] G,3G,F,2E,2 | 
[V:1] F2B2AFG2 | 
[V:2] d2B2c2c2 | 
[V:3] B2G2A2G2 | 
[V:4] D,2G,2F,2E,2 | 
[V:1] F2B3AG2 | 
[V:2] d4B2c2 | 
[V:3] B4G4 | 
[V:4] D,2G,3F,E,2 | 
[V:1] F2G4^F2 | 
[V:2] d2_e2d4 | 
[V:3] A8 | 
[V:4] D,2C,2D,4 | 
[V:1] G8 | 
[V:2] B4z2B2 | 
[V:3] G8 | 
[V:4] G,,8 | 
[V:1] z8 | 
[V:2] c2d2B2c2 | 
[V:3] z8 | 
[V:4] E,2F,2G,2E,2 | 
[V:1] z8 | 
[V:2] d2B2c2d2 | 
[V:3] z8 | 
[V:4] F,2G,2E,2F,2 | 
[V:1] z8 | 
[V:2] B2c2d3c | 
[V:3] z8 | 
[V:4] G,2E,2F,2D,2- | 
[V:1] z8 | 
[V:2] BAA4G2 | 
[V:3] z8 | 
[V:4] D,2C,2B,,4 | 
[V:1] z2A2B2G2 | 
[V:2] A2F2G2E2 | 
[V:3] z2f2d2e2 | 
[V:4] A,,2D,2B,,2C,2 | 
[V:1] B2A3GG2- | 
[V:2] FDd4cB | 
[V:3] d2f2d2e2 | 
[V:4] D,4B,,2C,2 | 
[V:1] G2^F2G4 | 
[V:2] A4G4 | 
[V:3] d4z2B2 | 
[V:4] D,4G,,4 | 
[V:1] z2E2F2G2- | 
[V:2] z2c4d2 | 
[V:3] G2A4G2 | 
[V:4] z8 | 
[V:1] GEF2G2A2- | 
[V:2] e2c2d2e2 | 
[V:3] c2A2B2A2 | 
[V:4] z8 | 
[V:1] AFG2A2B2- | 
[V:2] f2d2e2f2 | 
[V:3] d2B2c2B2 | 
[V:4] z8 | 
[V:1] BGA2B2c2 | 
[V:2] g2e2f2g2 | 
[V:3] _e2c2d2c2 | 
[V:4] z8 | 
[V:1] A2d2c2BA- | 
[V:2] a2d2g2f2 | 
[V:3] f3d_e2d2 | 
[V:4] z2B,,2C,2D,2 | 
[V:1] AGG4^F2 | 
[V:2] (3:2:6_e3Bc2d3cA2 | 
[V:3] B2G2A4 | 
[V:4] _E,4D,4 | 
[V:1] G8 ||  
[V:2] B8 ||  
[V:3] G8 ||  
[V:4] G,,8 ||  
[V:1] [M:2/1]z4A3B | 
[V:2] [M:2/1]d3ef2f2 | 
[V:3] [M:2/1]z8 | 
[V:4] [M:2/1]z8 | 
[V:1] c2c2c2c2 | 
[V:2] f2f2f4- | 
[V:3] z8 | 
[V:4] z8 | 
[V:1] c6BA | 
[V:2] f2edc4 | 
[V:3] z8 | 
[V:4] z8 | 
[V:1] G4z2d2 | 
[V:2] z2g2g2f2 | 
[V:3] z8 | 
[V:4] z8 | 
[V:1] d2c2d2B2 | 
[V:2] g2e2d4 | 
[V:3] z8 | 
[V:4] z8 | 
[V:1] A4z2A2 | 
[V:2] z2d2_e2d2 | 
[V:3] z8 | 
[V:4] z8 | 
[V:1] B2A2F2G2- | 
[V:2] B2c2d2G2- | 
[V:3] z8 | 
[V:4] z8 | 
[V:1] GFD2E4 | 
[V:2] G2d4^c2 | 
[V:3] z8 | 
[V:4] z8 | 
[V:1] D4A4 | 
[V:2] d8 | 
[V:3] z4f4 | 
[V:4] z4D,4 | 
[V:1] B8 | 
[V:2] B4G4 | 
[V:3] d4e2d2 | 
[V:4] G,6G,2 | 
[V:1] A4G4- | 
[V:2] A4B4- | 
[V:3] f2d2e4 | 
[V:4] F,4G,4 | 
[V:1] G2^FEF4 | 
[V:2] B2AGA4 | 
[V:3] d8 | 
[V:4] D,8 | 
[V:1] G4z4 | 
[V:2] G2z2A2B2 | 
[V:3] z8 | 
[V:4] z2E,2F,2G,2 | 
[V:1] z8 | 
[V:2] c2A2B2G2 | 
[V:3] z8 | 
[V:4] E,2F,2D,2E,2 | 
[V:1] z8 | 
[V:2] A2c2B4 | 
[V:3] z8 | 
[V:4] F,E,A,3G,G,F, | 
[V:1] z2F2G2F2 | 
[V:2] A4z2A2 | 
[V:3] z8 | 
[V:4] A,2D,2_E,2D,2 | 
[V:1] G2A3BG2- | 
[V:2] B2A2F2G2 | 
[V:3] z8 | 
[V:4] B,,2C,2D,4- | 
[V:1] G2^F2G4 | 
[V:2] A4G4 | 
[V:3] z4B4- | 
[V:4] D,4G,,4 | 
[V:1] B4A2B2- | 
[V:2] z2d4d2 | 
[V:3] B2G2A2G2 | 
[V:4] G,4F,2G,2- | 
[V:1] BAF2G2G2- | 
[V:2] d2d2B2c2 | 
[V:3] B6G2 | 
[V:4] G,2D,2_E,4 | 
[V:1] G2^F2G2z2 | 
[V:2] d4z2d2 | 
[V:3] A4G4 | 
[V:4] D,4G,,4 | 
[V:1] G2A2B2c2 | 
[V:2] e2f2g2e2 | 
[V:3] z8 | 
[V:4] z8 | 
[V:1] A2B2A2d2- | 
[V:2] f2d2f4 | 
[V:3] z8 | 
[V:4] z8 | 
[V:1] dBc2d2A2 | 
[V:2] e4d4- | 
[V:3] z4z2f2 | 
[V:4] z4D,4 | 
[V:1] B2G2B2A2- | 
[V:2] d2c2B2F2 | 
[V:3] d2e2d4 | 
[V:4] B,,2C,2D,4 | 
[V:1] AGG4^F2 | 
[V:2] GABcd4 | 
[V:3] B2G2A4 | 
[V:4] _E,4D,4 | 
[V:1] G4z2D2 | 
[V:2] B2G2A2B2 | 
[V:3] G4z4 | 
[V:4] z8 | 
[V:1] E2F2G2B2- | 
[V:2] c2d2B2G2 | 
[V:3] z8 | 
[V:4] z8 | 
[V:1] BAA4G2 | 
[V:2] d3cB4 | 
[V:3] z8 | 
[V:4] z8 | 
[V:1] A4z2A2 | 
[V:2] A4z2d2 | 
[V:3] z4z2f2 | 
[V:4] z4z2D,2 | 
[V:1] B2G2B2A2- | 
[V:2] B2c2B2c2 | 
[V:3] d2e2d2f2 | 
[V:4] G,2C,2G,2F,2 | 
[V:1] AGG4^F2 | 
[V:2] B2c2A4 | 
[V:3] d2e2d4- | 
[V:4] G,2C,2D,4 | 
[V:1] G4z2D2 | 
[V:2] G4z2G2 | 
[V:3] d4z2B2 | 
[V:4] G,,4z2G,,2 | 
[V:1] E3EE2E2 | 
[V:2] E3FG2A2 | 
[V:3] G2A2G2c2 | 
[V:4] C,3C,C,2A,,2 | 
[V:1] F3FF2D2 | 
[V:2] F3FF2G2 | 
[V:3] A2B2A2B2 | 
[V:4] D,3D,D,2G,,2 | 
[V:1] E3EE2E2 | 
[V:2] E3FG2A2 | 
[V:3] G2A2G2c2 | 
[V:4] C,3C,C,2A,,2 | 
[V:1] F2D2F2D2 | 
[V:2] F2G2F2G2 | 
[V:3] A2B2A2B2 | 
[V:4] D,2G,,2D,2B,,2 | 
[V:1] E2C2D2E2 | 
[V:2] E2c2BAG2 | 
[V:3] G2A2G2c2 | 
[V:4] C,2A,,2B,,2C,2 | 
[V:1] F4z2D2 | 
[V:2] F2z2F2G2 | 
[V:3] A2B2A2B2 | 
[V:4] D,4z2G,,2 | 
[V:1] E2C2F2G2 | 
[V:2] E2F4B2 | 
[V:3] G2A4G2 | 
[V:4] C,2A,,2D,2G,,2 | 
[V:1] A2F2G4 | 
[V:2] A2B2c4 | 
[V:3] F2D2E4 | 
[V:4] D,4C,4 | 
[V:1] F2D4B,2 | 
[V:2] F6G2 | 
[V:3] D8- | 
[V:4] D,6G,,2 | 
[V:1] B,8 ||  
[V:2] G8 ||  
[V:3] D8 ||  
[V:4] G,,8 ||  
[V:1] [M:2/1]z8 | 
[V:2] [M:2/1]z8 | 
[V:3] [M:2/1]z8 | 
[V:4] [M:2/1]G,6G,2 | 
[V:1] z8 | 
[V:2] d6d2 | 
[V:3] z8 | 
[V:4] F,2G,2D,4 | 
[V:1] z8 | 
[V:2] c2d2A4 | 
[V:3] z8 | 
[V:4] z2F,4F,2 | 
[V:1] z8 | 
[V:2] z2c4c2 | 
[V:3] z8 | 
[V:4] E,2F,2C,D,E,F, | 
[V:1] z8 | 
[V:2] B2c2GABc | 
[V:3] z8 | 
[V:4] G,2C,2_E,2D,2 | 
[V:1] z8 | 
[V:2] d2G2B2A2 | 
[V:3] z8 | 
[V:4] B,,2C,2G,,2D,2- | 
[V:1] z8 | 
[V:2] F2G3^F^FE | 
[V:3] z8 | 
[V:4] D,2B,,2A,,4 | 
[V:1] z2D2E2F2 | 
[V:2] G4B2c2 | 
[V:3] z2B2G2A2 | 
[V:4] G,,4z4 | 
[V:1] G2G2G2G2 | 
[V:2] d2d2d2d2 | 
[V:3] G2B4G2 | 
[V:4] z8 | 
[V:1] F2G2F2G2- | 
[V:2] c2d4B2 | 
[V:3] A2G2B2G2 | 
[V:4] z8 | 
[V:1] G^FFEG4 | 
[V:2] c2d4cB | 
[V:3] A4G4 | 
[V:4] z2D,2B,,2C,2 | 
[V:1] z2A2B2G2 | 
[V:2] A2d2B2c2 | 
[V:3] z2f2d2e2 | 
[V:4] D,4z4 | 
[V:1] B2A2B2G2 | 
[V:2] d4z4 | 
[V:3] d2f2d2e2 | 
[V:4] z2D,2B,,2C,2 | 
[V:1] F2F2F2E2 | 
[V:2] z2A2B2c2 | 
[V:3] d2f2d2e2 | 
[V:4] D,2D,2D,2C,2 | 
[V:1] F4D4 | 
[V:2] (3:2:6F3GA2B2F2G2 | 
[V:3] d2f4d2 | 
[V:4] D,4B,,4 | 
[V:1] C4F2F2 | 
[V:2] A4z2A2 | 
[V:3] e4d2f2 | 
[V:4] A,,4D,2D,2 | 
[V:1] F2E2F3D | 
[V:2] B2c2(3F3GA2 | 
[V:3] d2e2d2f2- | 
[V:4] D,2C,2D,4 | 
[V:1] d4c4 | 
[V:2] (3B2F2G2A4 | 
[V:3] f2d2e4 | 
[V:4] B,,4A,,4 | 
[V:1] z2A4d2 | 
[V:2] z2F4G2 | 
[V:3] d2f4d2 | 
[V:4] z2D,4B,,2 | 
[V:1] c2A2B4 | 
[V:2] E2F2G4 | 
[V:3] e2d2B2G2 | 
[V:4] C,2D,2G,,4 | 
[V:1] A2B3ABG | 
[V:2] F2G3FGE | 
[V:3] A2G2B2G2 | 
[V:4] z8 | 
[V:1] c4B4 | 
[V:2] ^FGA^FG4 | 
[V:3] A4(3G2B2G2 | 
[V:4] z4z2G,2 | 
[V:1] z8 | 
[V:2] z8 | 
[V:3] A2G2B2G2 | 
[V:4] F,2G,3F,G,E, | 
[V:1] z2A2B2B2 | 
[V:2] z4z2g2 | 
[V:3] A4G4 | 
[V:4] ^F,G,A,F,G,4 | 
[V:1] B4c4 | 
[V:2] g2g2e2f2- | 
[V:3] z8 | 
[V:4] z8 | 
[V:1] d4c2B2 | 
[V:2] f2d2e4 | 
[V:3] z8 | 
[V:4] z8 | 
[V:1] A4z2B2 | 
[V:2] f4g4 | 
[V:3] z8 | 
[V:4] z8 | 
[V:1] cBAGA2B2- | 
[V:2] e2fedcd2 | 
[V:3] z8 | 
[V:4] z8 | 
[V:1] BAG4^F2 | 
[V:2] B2c2A4 | 
[V:3] z8 | 
[V:4] z8 | 
[V:1] [M:3/1]G8z4 | 
[V:2] [M:3/1]G8z4 | 
[V:3] [M:3/1]B8G4- | 
[V:4] [M:3/1]z12 | 
[V:1] E8F4 | 
[V:2] c8A4 | 
[V:3] G4A8 | 
[V:4] [M:3/1]C,8D,4 | 
[V:1] G8G4 | 
[V:2] B4c8 | 
[V:3] G8z4 | 
[V:4] G,,4C,8 | 
[V:1] G8A4 | 
[V:2] e8f4 | 
[V:3] c8A4 | 
[V:4] C,8D,4 | 
[V:1] G4A6F2 | 
[V:2] e4f8 | 
[V:3] B4A8 | 
[V:4] G,4F,8 | 
[V:1] F8G4 | 
[V:2] d4z4c4 | 
[V:3] B8G4 | 
[V:4] B,,8_E,4 | 
[V:1] F4G8 | 
[V:2] d4B4_e4 | 
[V:3] A4G4c4 | 
[V:4] D,4_E,4C,4 | 
[V:1] F4G6F2 | 
[V:2] d6c2d2e2 | 
[V:3] A4B8 | 
[V:4] D,4G,,8 | 
[V:1] A8G4 | 
[V:2] f8d4 | 
[V:3] A8B4 | 
[V:4] D,8B,,4 | 
[V:1] G4^F6E2 | 
[V:2] c4d8 | 
[V:3] G4A8 | 
[V:4] _E,4D,8 | 
[V:1] [M:2/1]G8 | 
[V:2] [M:2/1]B4G2B2- | 
[V:3] [M:2/1]G4B4 | 
[V:4] [M:2/1]G,,8 | 
[V:1] z8 | 
[V:2] BAG4^F2 | 
[V:3] G4A4 | 
[V:4] z8 | 
[V:1] d4B4 | 
[V:2] G4g4 | 
[V:3] G8 | 
[V:4] B,4G,4 | 
[V:1] c4A4 | 
[V:2] e4f4 | 
[V:3] z4z2f2- | 
[V:4] A,4D,4 | 
[V:1] z2B4B2 | 
[V:2] d2B4B2 | 
[V:3] f2d2e2d2 | 
[V:4] z2G,4G,2 | 
[V:1] A2B2c4 | 
[V:2] c2d2c3A | 
[V:3] f2d2e4 | 
[V:4] F,2B,2A,4 | 
[V:1] d2A2B3A | 
[V:2] A2f2e2d2- | 
[V:3] d4z2B2- | 
[V:4] F,4G,3F, | 
[V:1] F2G4^F2 | 
[V:2] d2c2d4 | 
[V:3] B2G2A4 | 
[V:4] D,2_E,2D,4 | 
[V:1] G8 | 
[V:2] B6G2 | 
[V:3] G8 | 
[V:4] G,,8 | 
[V:1] z4G4 | 
[V:2] G8 | 
[V:3] B8 | 
[V:4] z2G,2G,3E, | 
[V:1] G4E4- | 
[V:2] z4z2c2 | 
[V:3] G8 | 
[V:4] E,4C,4- | 
[V:1] E4F4 | 
[V:2] c4A4 | 
[V:3] A8 | 
[V:4] C,4D,4 | 
[V:1] G4E4 | 
[V:2] (3B4G4c4 | 
[V:3] G8 | 
[V:4] G,,4C,4 | 
[V:1] z2F3ED2- | 
[V:2] (3A4F4G4 | 
[V:3] F4D4 | 
[V:4] D,4B,,4 | 
[V:1] D2^C=B,CDEC | 
[V:2] A8 | 
[V:3] E8 | 
[V:4] A,,8 | 
[V:1] D8 | 
[V:2] F6ED | 
[V:3] D4z2f2- | 
[V:4] D,8 | 
[V:1] z2F2G2B2- | 
[V:2] d4z2G2 | 
[V:3] f2d2e2d2 | 
[V:4] z8 | 
[V:1] BAA4G2 | 
[V:2] A2F2G4 | 
[V:3] c2A2B4 | 
[V:4] z8 | 
[V:1] A8- | 
[V:2] D3FE2D2 | 
[V:3] A8 | 
[V:4] z2D,2C,2D,2 | 
[V:1] A4z2d2 | 
[V:2] A4F3G | 
[V:3] z2f4d2 | 
[V:4] A,,2D,3C,B,,2 | 
[V:1] c2d2A2d2 | 
[V:2] A6F2 | 
[V:3] e2d2f4- | 
[V:4] A,,2D,3C,D,E, | 
[V:1] c2d2G2d2- | 
[V:2] A2G3EF2 | 
[V:3] f2d2e2d2 | 
[V:4] F,2B,,2C,2D,2 | 
[V:1] dcB2A2d2- | 
[V:2] (3:2:6G3AB2c2d2G2 | 
[V:3] B2G2A2G2 | 
[V:4] G,,2G,2F,2B,2- | 
[V:1] dcB3AG2 | 
[V:2] d4B3c | 
[V:3] B4G4 | 
[V:4] B,A,G,3F,E,2 | 
[V:1] F2G2D2d2- | 
[V:2] d2B2d2G2 | 
[V:3] A2G2B4- | 
[V:4] D,2D3CB,2- | 
[V:1] dcB3AG2 | 
[V:2] d4B3c | 
[V:3] B4G4 | 
[V:4] B,A,G,3F,E,2 | 
[V:1] F2G3^FFE | 
[V:2] d2_e2d4- | 
[V:3] A8 | 
[V:4] D,2C,2D,4 | 
[V:1] G8- | 
[V:2] d2B2_e4 | 
[V:3] G8- | 
[V:4] B,,2G,,2C,3B,, | 
[V:1] G8 |]  
[V:2] d8 |]  
[V:3] G8 |]  
[V:4] G,,8 |]  



